X:147
T:Harvest Home
R:hornpipe
H:Usually played in D, #44. This is Mrs. Crotty's version.
D:Edel Fox
Z:id:hn-hornpipe-147
M:C|
L:1/8
K:G
BdGd BdGd | gbaf gfed  | eaab c'abg | (3aba (3gfe dcBA |
BdGd BdGd | gbaf gfed | (3efg ab c'afa |1 g2gf gedc :|2 g2gf g2fg ||
|: addd eddd | c'ddd eddd | eaab c'abg | (3aba (3gfe dcBA |
BdGd BdGd | gbaf gfed | eaab c'afa |1 g2gf g2 (3efg :|2 g2gf gedc :|

